static/assets/images/exchanges/syncswap.svg

<svg width="182" height="256" viewBox="0 0 182 256" fill="none" xmlns="http://www.w3.org/2000/svg">
<path d="M78.895 107.178C92.7256 117.934 108.448 125.972 121.214 138.265C141.665 158.005 151.476 184.601 138.828 212.024C125.588 240.63 92.7256 262.97 55.1346 253.987C23.2178 246.303 1.11236 218.998 0.0484591 186.02C-0.424384 171.008 2.53089 156.941 10.3328 144.057C11.7513 141.811 11.6331 140.511 9.15069 139.211C7.25932 138.265 4.18584 137.438 4.30405 135.428C4.42226 133.419 7.61395 133.064 9.62353 132C19.1986 127.036 28.7737 122.071 38.3487 117.225C39.649 116.516 40.8312 115.57 42.8407 115.57C42.2497 129.873 41.6586 144.057 40.9494 158.596C37.8759 157.651 35.6299 155.878 33.2657 154.223C31.2561 152.804 30.1922 152.686 28.7737 155.05C12.4606 183.419 24.5181 225.145 61.1634 233.065C84.4509 238.147 105.374 225.145 115.422 209.542C127.007 191.457 124.879 173.372 109.63 157.06C106.438 153.632 103.01 150.322 99.5818 147.012C97.3358 139.329 92.4892 132.946 88.9429 125.854C85.633 119.707 81.3774 113.915 78.895 107.178Z" fill="#8767D5"/>
<path d="M78.895 107.178C81.3774 113.915 85.633 119.707 88.8247 126.209C92.371 133.301 97.2176 139.684 99.4636 147.367C90.125 140.984 80.5499 134.719 71.4477 127.982C60.927 120.298 52.2976 110.842 46.1506 99.2581C37.2848 82.355 36.1027 64.6244 44.0228 47.1303C55.1346 22.1893 74.2848 5.87722 101.237 1.03087C130.198 -4.28829 159.278 11.4328 172.754 37.674C185.048 61.5511 183.984 85.1919 170.981 108.36C168.499 112.733 169.09 114.743 173.345 116.516C175.118 117.225 176.537 118.525 179.019 120.062C165.662 126.918 152.777 133.537 139.182 140.629C139.773 125.617 140.365 111.315 141.074 96.1848C143.674 97.8397 145.802 99.0217 147.812 100.44C149.821 101.859 151.003 101.622 152.304 99.4945C167.198 75.8538 160.815 44.2934 137.764 28.8087C118.968 16.1609 94.8534 18.7614 77.5947 35.1917C70.9749 41.4565 65.419 48.4305 62.2273 57.1776C56.0803 74.1989 61.6362 88.3834 72.8662 101.149C74.7576 103.277 76.8854 105.168 78.895 107.178Z" fill="#B4B8FF"/>
</svg>

<svg xmlns="http://www.w3.org/2000/svg" fill="none" viewBox="0 0 182 256"><path fill="#8767D5" d="M78.895 107.178c13.83 10.756 29.553 18.794 42.319 31.087 20.451 19.74 30.262 46.336 17.614 73.759-13.24 28.606-46.102 50.946-83.693 41.963C23.218 246.303 1.112 218.998.048 186.02c-.472-15.012 2.483-29.079 10.285-41.963 1.418-2.246 1.3-3.546-1.182-4.846-1.892-.946-4.965-1.773-4.847-3.783s3.31-2.364 5.32-3.428c9.575-4.964 19.15-9.929 28.725-14.775 1.3-.709 2.482-1.655 4.492-1.655-.591 14.303-1.182 28.487-1.892 43.026-3.073-.945-5.32-2.718-7.683-4.373-2.01-1.419-3.074-1.537-4.492.827-16.313 28.369-4.256 70.095 32.39 78.015 23.287 5.082 44.21-7.92 54.258-23.523 11.585-18.085 9.457-36.17-5.792-52.482-3.192-3.428-6.62-6.738-10.048-10.048-2.246-7.683-7.093-14.066-10.64-21.158-3.309-6.147-7.565-11.939-10.047-18.676"/><path fill="#B4B8FF" d="M78.895 107.178c2.482 6.737 6.738 12.529 9.93 19.031 3.546 7.092 8.393 13.475 10.639 21.158-9.339-6.383-18.914-12.648-28.016-19.385-10.521-7.684-19.15-17.14-25.297-28.724-8.866-16.903-10.048-34.634-2.128-52.128 11.112-24.94 30.262-41.253 57.214-46.1 28.961-5.318 58.041 10.403 71.517 36.644 12.294 23.877 11.23 47.518-1.773 70.686-2.482 4.373-1.891 6.383 2.364 8.156 1.773.709 3.192 2.009 5.674 3.546-13.357 6.856-26.242 13.475-39.837 20.567a5844 5844 0 0 1 1.892-44.444c2.6 1.655 4.728 2.837 6.738 4.255 2.009 1.419 3.191 1.182 4.492-.945 14.894-23.641 8.511-55.202-14.54-70.686-18.796-12.648-42.91-10.048-60.17 6.383-6.62 6.264-12.175 13.239-15.367 21.986-6.147 17.02-.59 31.205 10.64 43.971 1.89 2.128 4.018 4.019 6.028 6.029"/></svg>
